src/lib/packages/icons/src/assets/filled/medal.svg

<svg width="24" height="24" viewBox="0 0 24 24" fill="none" xmlns="http://www.w3.org/2000/svg">
<path fill-rule="evenodd" clip-rule="evenodd" d="M18.5 14.5C18.5 18.09 15.59 21 12 21C8.41 21 5.5 18.09 5.5 14.5C5.5 10.91 8.41 8 12 8C15.59 8 18.5 10.91 18.5 14.5ZM21 3H16L13.89 6.32401C13.781 6.49501 13.8739 6.714 14.0699 6.767C15.2259 7.081 16.2799 7.64599 17.1639 8.39999C17.3029 8.51799 17.5091 8.49201 17.6071 8.33801L21 3ZM10.11 6.32401L8 3H3L6.39502 8.33899C6.49302 8.49299 6.69901 8.519 6.83801 8.401C7.72201 7.646 8.77501 7.08201 9.93201 6.76801C10.127 6.71401 10.219 6.49501 10.11 6.32401Z" fill="currentColor"/>
</svg>

<svg xmlns="http://www.w3.org/2000/svg" width="24" height="24" fill="none"><path fill="currentColor" fill-rule="evenodd" d="M18.5 14.5a6.5 6.5 0 1 1-13 0 6.5 6.5 0 0 1 13 0ZM21 3h-5l-2.11 3.324a.294.294 0 0 0 .18.443A8.002 8.002 0 0 1 17.164 8.4a.294.294 0 0 0 .443-.062L21 3ZM10.11 6.324 8 3H3l3.395 5.339c.098.154.304.18.443.062a7.981 7.981 0 0 1 3.094-1.633.295.295 0 0 0 .178-.444Z" clip-rule="evenodd"/></svg>
